X: 1
T: Ale is Dear
R: reel
M: 4/4
L: 1/8
K: Em
B2 AB E2 BA | BdaG FDDA | B2 AB E2 BA | B/c/d AF E4 :||
|: E2 EF G2 FE | FDDE DEFD | E2 EF G2 FE | B/c/d AF E4 :|]
